src/Resource_Files/fluent/format-case-uppercase.svg

<svg clip-rule="evenodd" fill-rule="evenodd" stroke-linejoin="round" stroke-miterlimit="2" viewBox="0 0 16 16" xmlns="http://www.w3.org/2000/svg"><g fill="#1abc9c" fill-rule="nonzero"><path d="m-.057 13.487 3.436-9.942c.087-.273.278-.416.583-.416.291 0 .487.134.591.395.002.005.004.01.005.015l3.411 9.962c.004.011.007.022.01.034.014.037.023.083.023.138 0 .161-.066.305-.221.421-.116.087-.252.133-.408.133-.274 0-.458-.13-.549-.395l-.736-2.121h-4.283l-.721 2.12c-.088.255-.275.396-.581.396-.138 0-.26-.037-.368-.108-.149-.097-.229-.238-.229-.432 0-.084.016-.149.037-.2zm8.032.038c-.01-.032-.025-.056-.041-.076-.016-.019-.032-.033-.044-.044.026.023.061.061.085.12zm-5.78-2.949h3.504l-1.739-5.096z"/><path d="m14.637 8.26c.059.034.117.07.174.108.233.153.432.345.597.576.162.225.289.491.379.797.087.295.132.644.132 1.047v.242c0 .579-.09 1.07-.264 1.473-.18.419-.43.756-.748 1.014-.314.255-.683.439-1.109.55-.406.106-.839.16-1.301.16h-2.808c-.171 0-.307-.055-.414-.151-.125-.112-.183-.247-.183-.403v-9.891c0-.2.079-.344.214-.444.113-.082.24-.124.383-.124h2.38c.472 0 .913.032 1.325.096.438.068.82.198 1.147.386.347.2.618.483.81.85.184.351.282.801.282 1.353 0 .682-.143 1.247-.418 1.698-.164.267-.357.488-.578.663zm-4.35 4.831h2.21c.707 0 1.264-.155 1.665-.489.388-.323.562-.852.562-1.572v-.242c0-.702-.167-1.205-.549-1.491-.404-.302-.965-.443-1.678-.443h-2.21zm0-5.372h1.893c.41 0 .767-.03 1.072-.093.269-.055.494-.149.671-.288.169-.132.294-.307.378-.522.094-.24.137-.546.137-.917 0-.335-.048-.606-.16-.809-.103-.19-.246-.337-.428-.441-.202-.115-.446-.191-.731-.232-.314-.045-.654-.068-1.018-.068h-1.814z" transform="translate(-.091755)"/></g></svg>

<?xml version="1.0" encoding="UTF-8" standalone="no"?>
<!DOCTYPE svg PUBLIC "-//W3C//DTD SVG 1.1//EN" "http://www.w3.org/Graphics/SVG/1.1/DTD/svg11.dtd">
<svg width="100%" height="100%" viewBox="0 0 16 16" version="1.1" xmlns="http://www.w3.org/2000/svg" xmlns:xlink="http://www.w3.org/1999/xlink" xml:space="preserve" xmlns:serif="http://www.serif.com/" style="fill-rule:evenodd;clip-rule:evenodd;stroke-linejoin:round;stroke-miterlimit:2;">
    <path d="M-0.057,13.487L3.379,3.545C3.466,3.272 3.657,3.129 3.962,3.129C4.253,3.129 4.449,3.263 4.553,3.524C4.555,3.529 4.557,3.534 4.558,3.539L7.969,13.501C7.973,13.512 7.976,13.523 7.979,13.535C7.993,13.572 8.002,13.618 8.002,13.673C8.002,13.834 7.936,13.978 7.781,14.094C7.665,14.181 7.529,14.227 7.373,14.227C7.099,14.227 6.915,14.097 6.824,13.832L6.088,11.711L1.805,11.711L1.084,13.831C0.996,14.086 0.809,14.227 0.503,14.227C0.365,14.227 0.243,14.19 0.135,14.119C-0.014,14.022 -0.094,13.881 -0.094,13.687C-0.094,13.603 -0.078,13.538 -0.057,13.487ZM7.975,13.525C7.965,13.493 7.95,13.469 7.934,13.449C7.918,13.43 7.902,13.416 7.89,13.405C7.916,13.428 7.951,13.466 7.975,13.525ZM2.195,10.576L5.699,10.576L3.96,5.48L2.195,10.576Z" style="fill:rgb(26,188,156);fill-rule:nonzero;"/>
    <g transform="matrix(1,0,0,1,-0.0917548,0)">
        <path d="M14.637,8.26C14.696,8.294 14.754,8.33 14.811,8.368C15.044,8.521 15.243,8.713 15.408,8.944C15.57,9.169 15.697,9.435 15.787,9.741C15.874,10.036 15.919,10.385 15.919,10.788L15.919,11.03C15.919,11.609 15.829,12.1 15.655,12.503C15.475,12.922 15.225,13.259 14.907,13.517C14.593,13.772 14.224,13.956 13.798,14.067C13.392,14.173 12.959,14.227 12.497,14.227L9.689,14.227C9.518,14.227 9.382,14.172 9.275,14.076C9.15,13.964 9.092,13.829 9.092,13.673L9.092,3.782C9.092,3.582 9.171,3.438 9.306,3.338C9.419,3.256 9.546,3.214 9.689,3.214L12.069,3.214C12.541,3.214 12.982,3.246 13.394,3.31C13.832,3.378 14.214,3.508 14.541,3.696C14.888,3.896 15.159,4.179 15.351,4.546C15.535,4.897 15.633,5.347 15.633,5.899C15.633,6.581 15.49,7.146 15.215,7.597C15.051,7.864 14.858,8.085 14.637,8.26ZM10.287,13.091L12.497,13.091C13.204,13.091 13.761,12.936 14.162,12.602C14.55,12.279 14.724,11.75 14.724,11.03L14.724,10.788C14.724,10.086 14.557,9.583 14.175,9.297C13.771,8.995 13.21,8.854 12.497,8.854L10.287,8.854L10.287,13.091ZM10.287,7.719L12.18,7.719C12.59,7.719 12.947,7.689 13.252,7.626C13.521,7.571 13.746,7.477 13.923,7.338C14.092,7.206 14.217,7.031 14.301,6.816C14.395,6.576 14.438,6.27 14.438,5.899C14.438,5.564 14.39,5.293 14.278,5.09C14.175,4.9 14.032,4.753 13.85,4.649C13.648,4.534 13.404,4.458 13.119,4.417C12.805,4.372 12.465,4.349 12.101,4.349L10.287,4.349L10.287,7.719Z" style="fill:rgb(26,188,156);fill-rule:nonzero;"/>
    </g>
</svg>
